X:1
T:[ID 1-95b]
T:[ID 1-95b]
T:Bezeichnung standardisiert: Cotillon nouveau; Sesken In dieser Quelle auch als: Courante In anderer Quelle: Cotillon Nouveau - De Nieuwe Hollandsche schouwburg 1760 (Anm. S. Wascher);
T:Urheber unbekannt Erstbeleg: 1760 (Datum in der schriftlichen Quelle) Datum in der hier transkribierten schriftlichen Quelle: vermutlich vor 1767
C:Urheber unbekannt
C:Erstbeleg: 1760 (Datum in der schriftlichen Quelle)
C:Datum in der hier transkribierten schriftlichen Quelle: vermutlich vor 1767
L:1/8
M:2/2
K:G
V:1 treble 
V:1
 GABc d2 d2 | e2 f2 g2 g2 | GABc d2 d2 | e2 f2 g4 :: GABc d2 d2 | d2 cB A2 B2 | c2 B2 A2 G2 | %7
 FGAF D4 | GABc d2 d2 | e2 f2 g2 d2 | g2 d2 g2 d2 | B2 AB G4 :| %12

